**kern	**text	**kern	**text
*staff2	*staff2	*staff1	*staff1
*I"Altus	*	*I"Cantus	*
*I'A	*	*I'C	*
*clefC3	*	*clefC1	*
*k[b-]	*	*k[b-]	*
*a:phr	*	*a:phr	*
*M2/1	*	*M2/1	*
*met(C|)	*	*met(C|)	*
{2a.	-be-	2d@	-bit,
=18	=18	=18	=18
.	.	1a@	sed
4g	.	.	.
4f	.	.	.
4e	.	.	.
2.f	.	2f@	ha-
.	.	2a.@	-be-
4g	.	.	.
=19	=19	=19	=19
4a	.	.	.
4g	.	4g@	.
4f	.	4f@	.
4e	.	4e@	.
4d	.	2f@	.
4c	.	.	.
2d	.	1d@	-bit
=20	=20	=20	=20
2B-	-bit	.	.
4G	lu-	2g.@	lu-
4A	.	.	.
4B-	.	.	.
4c	.	8fL@	.
.	.	8eJ@	.
4d	.	4d@	.
4e	.	4e@	.
=21	=21	=21	=21
2.f	.	4f@	.
.	.	4g@	.
.	.	2a.@	.
4e	.	.	.
2f	.	.	.
.	.	4f@	.
2d.	-men	2g@	.
=22	=22	=22	=22
.	.	2.f@	-men
4c	.	.	.
4d	.	.	.
4e	.	4e@	.
4f	.	4f@	.
4d	.	4g@	.
4e	.	4a@	.
4f	.	4f@	.
=23	=23	=23	=23
4g	.	2g@	.
4d	.	.	.
2f	.	4f@	vi-
.	.	4g@	.
2f	vi-	4a@	.
.	.	4f@	.
4e	.	2b-.@	.
4d	.	.	.
=24	=24	=24	=24
1e	.	.	.
.	.	8aL@	.
.	.	8gJ@	.
.	.	2a@	.
0d	-tae:	1b-@	-tac:
=25	=25	=25	=25
.	.	2r@	.
.	.	2f@	di-
2r	.	2g@	-cit-
2e	di-	2a.@	-Do-
=26	=26	=26	=26
2f	-cit	.	.
.	.	8gL@	.
.	.	8fJ@	.
2g.	Do-	4g@	.
.	.	4e@	.
.	.	2.f@	.
8fL	.	.	.
8eJ	.	.	.
4f	.	.	.
4d	.	4f@	-mo-
=27	=27	=27	=27
2.e	.	2e@	-nus,
.	.	{2a.	di-
4e	-mi-	.	.
2d	-nus,	.	.
.	.	8gL	.
.	.	8fJ	.
2g.	di-	2g	.
=28	=28	=28	=28
.	.	2.f	-cit
8fL	.	.	.
8eJ	.	.	.
2f	.	.	.
.	.	4g	.
2.e	-cit	2a	.
.	.	4e	Do-
4f	.	4f	.
=29	=29	=29	=29
2g	.	4g	.
.	.	4a	.
4G	Do-	2b-.	.
4A	.	.	.
4B-	.	.	.
4c	.	4a	.
2d.	.	4g	.
.	.	4f}	.
=30	=30	=30	=30
.	.	4g@	.
4c	.	4f@	.
4B-	.	4e@	.
4A	.	4d@	.
4G	.	4g@	.
4F}	.	4a@	.
*-	*-	*-	*-
!!!RDF**kern: l = terminal long
!!!RDF**kern: i = editorial accidental
!!!system-decoration: [(s1,s2)]
!!!RDF**kern: @ = marked note, color=#ccc
!!!RDF**kern: { = phrase, brack